packages/kaspersky-hexa-ui-icons/src/iconsSVGs/28x20/FlagMs.svg

<svg width="28" height="20" viewBox="0 0 28 20" fill="none" xmlns="http://www.w3.org/2000/svg">
<g clip-path="url(#clip0_5138_1346)">
<rect width="28" height="20" rx="2" fill="white"/>
<mask id="mask0_5138_1346" style="mask-type:luminance" maskUnits="userSpaceOnUse" x="0" y="0" width="28" height="20">
<rect width="28" height="20" rx="2" fill="white"/>
</mask>
<g mask="url(#mask0_5138_1346)">
<rect width="28" height="20" fill="#07319C"/>
<rect width="12" height="9.33333" fill="url(#paint0_linear_5138_1346)"/>
<mask id="mask1_5138_1346" style="mask-type:alpha" maskUnits="userSpaceOnUse" x="0" y="0" width="12" height="10">
<rect width="12" height="9.33333" fill="url(#paint1_linear_5138_1346)"/>
</mask>
<g mask="url(#mask1_5138_1346)">
<mask id="path-6-outside-1_5138_1346" maskUnits="userSpaceOnUse" x="-2" y="-2" width="15" height="13" fill="black">
<rect fill="white" x="-2" y="-2" width="15" height="13"/>
<path fill-rule="evenodd" clip-rule="evenodd" d="M4.66667 4L0 0H0.666667L5.33333 3.33333H6.66667L12 0V0.495127C12 0.602778 11.948 0.703801 11.8604 0.766372L7.33333 4V5.33333L11.5475 8.94545C11.7029 9.07867 11.6087 9.33333 11.404 9.33333C11.358 9.33333 11.3132 9.31897 11.2758 9.29226L6.66667 6H5.33333L0 9.33333V8.66667L4.66667 5.33333V4Z"/>
</mask>
<path fill-rule="evenodd" clip-rule="evenodd" d="M4.66667 4L0 0H0.666667L5.33333 3.33333H6.66667L12 0V0.495127C12 0.602778 11.948 0.703801 11.8604 0.766372L7.33333 4V5.33333L11.5475 8.94545C11.7029 9.07867 11.6087 9.33333 11.404 9.33333C11.358 9.33333 11.3132 9.31897 11.2758 9.29226L6.66667 6H5.33333L0 9.33333V8.66667L4.66667 5.33333V4Z" fill="#DB1E36"/>
<path fill-rule="evenodd" clip-rule="evenodd" d="M4.66667 4L0 0H0.666667L5.33333 3.33333H6.66667L12 0V0.495127C12 0.602778 11.948 0.703801 11.8604 0.766372L7.33333 4V5.33333L11.5475 8.94545C11.7029 9.07867 11.6087 9.33333 11.404 9.33333C11.358 9.33333 11.3132 9.31897 11.2758 9.29226L6.66667 6H5.33333L0 9.33333V8.66667L4.66667 5.33333V4Z" stroke="white" stroke-width="1.33333" mask="url(#path-6-outside-1_5138_1346)"/>
<path fill-rule="evenodd" clip-rule="evenodd" d="M0 3.33333V6H4.66667V9.33333C4.66667 9.70152 4.96514 10 5.33333 10H6.66667C7.03486 10 7.33333 9.70152 7.33333 9.33333V6H12C12.3682 6 12.6667 5.70152 12.6667 5.33333V4C12.6667 3.63181 12.3682 3.33333 12 3.33333H7.33333V0H4.66667V3.33333H0Z" fill="white"/>
<path fill-rule="evenodd" clip-rule="evenodd" d="M0 4H5.33333V3.33333V0H6.66667V3.33333V4H12V5.33333H6.66667V6V9.33333H5.33333V6V5.33333H0V4Z" fill="#DB1E36"/>
</g>
</g>
<g clip-path="url(#clip1_5138_1346)">
<path fill-rule="evenodd" clip-rule="evenodd" d="M17.3333 10C17.3333 8.90626 17.3333 7.61315 17.3333 6.66582C17.3333 5.92944 17.9303 5.33333 18.6667 5.33333H22.6667C23.4031 5.33333 24 5.92944 24 6.66582C24 7.61315 24 8.90626 24 10C24 13.3333 20.6667 14.6667 20.6667 14.6667C20.6667 14.6667 17.3333 13.3333 17.3333 10Z" fill="#08B9D6"/>
<mask id="mask2_5138_1346" style="mask-type:luminance" maskUnits="userSpaceOnUse" x="17" y="5" width="7" height="10">
<path fill-rule="evenodd" clip-rule="evenodd" d="M17.3333 10C17.3333 8.90626 17.3333 7.61315 17.3333 6.66582C17.3333 5.92944 17.9303 5.33333 18.6667 5.33333H22.6667C23.4031 5.33333 24 5.92944 24 6.66582C24 7.61315 24 8.90626 24 10C24 13.3333 20.6667 14.6667 20.6667 14.6667C20.6667 14.6667 17.3333 13.3333 17.3333 10Z" fill="white"/>
</mask>
<g mask="url(#mask2_5138_1346)">
<path fill-rule="evenodd" clip-rule="evenodd" d="M17.3333 12H24V14.6667H21.3333H20H17.3333L17.3333 12Z" fill="#A63D09"/>
<path fill-rule="evenodd" clip-rule="evenodd" d="M21.3334 6.66667H20V8H18.6667V9.33333H20V12H21.3334V9.33333H22.6667V8H21.3334V6.66667Z" fill="#262626"/>
</g>
</g>
</g>
<defs>
<linearGradient id="paint0_linear_5138_1346" x1="0" y1="0" x2="0" y2="9.33333" gradientUnits="userSpaceOnUse">
<stop stop-color="#042C90"/>
<stop offset="1" stop-color="#00247E"/>
</linearGradient>
<linearGradient id="paint1_linear_5138_1346" x1="0" y1="0" x2="0" y2="9.33333" gradientUnits="userSpaceOnUse">
<stop stop-color="#042C90"/>
<stop offset="1" stop-color="#00247E"/>
</linearGradient>
<clipPath id="clip0_5138_1346">
<rect width="28" height="20" fill="white"/>
</clipPath>
<clipPath id="clip1_5138_1346">
<rect width="7" height="10" fill="white" transform="translate(17.3333 5.33333)"/>
</clipPath>
</defs>
</svg>

<svg xmlns="http://www.w3.org/2000/svg" width="28" height="20" fill="none" viewBox="0 0 28 20"><g clip-path="url(#a)"><rect width="28" height="20" fill="#fff" rx="2"/><mask id="b" width="28" height="20" x="0" y="0" maskUnits="userSpaceOnUse" style="mask-type:luminance"><rect width="28" height="20" fill="#fff" rx="2"/></mask><g mask="url(#b)"><path fill="#07319c" d="M0 0h28v20H0z"/><path fill="url(#c)" d="M0 0h12v9.3333H0z"/><mask id="e" width="12" height="10" x="0" y="0" maskUnits="userSpaceOnUse" style="mask-type:alpha"><path fill="url(#d)" d="M0 0h12v9.3333H0z"/></mask><g mask="url(#e)"><mask id="f" width="15" height="13" x="-2" y="-2" fill="#000" maskUnits="userSpaceOnUse"><path fill="#fff" d="M-2-2h15v13H-2z"/><path fill-rule="evenodd" d="M4.6667 4 0 0h.6667l4.6666 3.3333h1.3334L12 0v.4951a.333.333 0 0 1-.1396.2713L7.3334 4v1.3333l4.2141 3.6121c.1554.1333.0612.388-.1435.388a.22.22 0 0 1-.1282-.0411L6.6667 6H5.3333L0 9.3333v-.6666l4.6667-3.3334z" clip-rule="evenodd"/></mask><path fill="#db1e36" fill-rule="evenodd" d="M4.6667 4 0 0h.6667l4.6666 3.3333h1.3334L12 0v.4951a.333.333 0 0 1-.1396.2713L7.3334 4v1.3333l4.2141 3.6121c.1554.1333.0612.388-.1435.388a.22.22 0 0 1-.1282-.0411L6.6667 6H5.3333L0 9.3333v-.6666l4.6667-3.3334z" clip-rule="evenodd"/><path stroke="#fff" d="M4.6667 4 0 0h.6667l4.6666 3.3333h1.3334L12 0v.4951a.333.333 0 0 1-.1396.2713L7.3334 4v1.3333l4.2141 3.6121c.1554.1333.0612.388-.1435.388a.22.22 0 0 1-.1282-.0411L6.6667 6H5.3333L0 9.3333v-.6666l4.6667-3.3334z" clip-rule="evenodd" mask="url(#f)"/><path fill="#fff" fill-rule="evenodd" d="M0 3.3333V6h4.6667v3.3333c0 .3682.2984.6667.6666.6667h1.3334a.6667.6667 0 0 0 .6666-.6667V6H12a.6667.6667 0 0 0 .6667-.6667V4A.6667.6667 0 0 0 12 3.3333H7.3333V0H4.6667v3.3333z" clip-rule="evenodd"/><path fill="#db1e36" fill-rule="evenodd" d="M0 4h5.3333V0h1.3334v4H12v1.3333H6.6667v4H5.3333v-4H0z" clip-rule="evenodd"/></g></g><g clip-path="url(#g)"><path fill="#08b9d6" fill-rule="evenodd" d="M17.3333 10V6.6658c0-.7364.597-1.3325 1.3334-1.3325h4c.7364 0 1.3333.5961 1.3333 1.3325V10c0 3.3333-3.3333 4.6667-3.3333 4.6667S17.3333 13.3333 17.3333 10" clip-rule="evenodd"/><mask id="h" width="7" height="10" x="17" y="5" maskUnits="userSpaceOnUse" style="mask-type:luminance"><path fill="#fff" fill-rule="evenodd" d="M17.3333 10V6.6658c0-.7364.597-1.3325 1.3334-1.3325h4c.7364 0 1.3333.5961 1.3333 1.3325V10c0 3.3333-3.3333 4.6667-3.3333 4.6667S17.3333 13.3333 17.3333 10" clip-rule="evenodd"/></mask><g fill-rule="evenodd" clip-rule="evenodd" mask="url(#h)"><path fill="#a63d09" d="M17.3333 12H24v2.6667h-6.6667z"/><path fill="#262626" d="M21.3334 6.6667H20V8h-1.3333v1.3333H20V12h1.3334V9.3333h1.3333V8h-1.3333z"/></g></g></g><defs><linearGradient id="c" x1="0" x2="0" y1="0" y2="9" gradientUnits="userSpaceOnUse"><stop stop-color="#042c90"/><stop offset="1" stop-color="#00247e"/></linearGradient><linearGradient id="d" x1="0" x2="0" y1="0" y2="9" gradientUnits="userSpaceOnUse"><stop stop-color="#042c90"/><stop offset="1" stop-color="#00247e"/></linearGradient><clipPath id="a"><path fill="#fff" d="M0 0h28v20H0z"/></clipPath><clipPath id="g"><path fill="#fff" d="M17.3333 5.3333h7v10h-7z"/></clipPath></defs></svg>
